Hatter-kde/actions/24/labplot-xy-smoothing-curve.svg

<svg xmlns="http://www.w3.org/2000/svg" viewBox="0 0 24 24">
  <defs id="defs3051">
    <style type="text/css" id="current-color-scheme">
      .ColorScheme-Text {
        color:#363636;
      }
      .ColorScheme-Highlight {
        color:#3daee9;
      }
      </style>
  </defs><g transform="translate(1,1)">
 <path 
     style="fill:currentColor;fill-opacity:1;stroke:none" 
     d="m 4,3 0,14 -1,0 0,1 1,0 0,1 1,0 0,-1 14,0 0,-1 -11,0 0,-3 4,0 0,-1 0,-4 3,0 0,-1 0,-3 4,0 0,-1 -3,0 -2,0 0,4 -3,0 0,1 0,4 -4,0 0,1 0,3 -2,0 0,-14 z"
     class="ColorScheme-Text"
     />
 <path 
     style="fill:currentColor;fill-opacity:1;stroke:none" 
     d="M 18.996094 4 C 17.318298 4.0147218 15.882867 4.9286614 14.630859 6.1972656 C 13.378852 7.4658699 12.274223 9.1100804 11.208984 10.732422 C 10.143746 12.354763 9.117216 13.956734 8.0800781 15.123047 C 7.0429402 16.28936 6.0347103 16.977377 5 16.978516 L 5 17.978516 C 6.4652897 17.976903 7.7081101 17.048575 8.828125 15.789062 C 9.9481399 14.529551 10.984438 12.89635 12.044922 11.28125 C 13.105406 9.6661502 14.188096 8.0693852 15.341797 6.9003906 C 16.495498 5.731396 17.684591 5.0115764 19.003906 5 L 18.996094 4 z "
     class="ColorScheme-Highlight"
     />
</g></svg>

<?xml version="1.0" encoding="UTF-8"?>
<svg viewBox="0 0 24 24" xmlns="http://www.w3.org/2000/svg">
 <defs id="defs3051">
  <style id="current-color-scheme" type="text/css">.ColorScheme-Text {
        color:#363636;
      }
      .ColorScheme-Highlight {
        color:#3daee9;
      }</style>
 </defs>
 <g transform="translate(1,1)" fill="currentColor">
  <path class="ColorScheme-Text" d="m4 3v14h-1v1h1v1h1v-1h14v-1h-11v-3h4v-1-4h3v-1-3h4v-1h-3-2v4h-3v1 4h-4v1 3h-2v-14z"/>
  <path class="ColorScheme-Highlight" d="m18.996 4c-1.6778 0.014722-3.1132 0.92866-4.3652 2.1973-1.252 1.2686-2.3566 2.9128-3.4219 4.5352-1.0652 1.6223-2.0918 3.2243-3.1289 4.3906s-2.0454 1.8543-3.0801 1.8555v1c1.4653-0.001613 2.7081-0.92994 3.8281-2.1895 1.12-1.2595 2.1563-2.8927 3.2168-4.5078 1.0605-1.6151 2.1432-3.2119 3.2969-4.3809s2.3428-1.8888 3.6621-1.9004l-0.007812-1z"/>
 </g>
</svg>
